!!!COM: Beethoven
!!!OTL: 13 Variationen uber "Es war einmal ein alter Mann" aus "Das rote Kappchen" von K. Ditters von Dittersdorf
!!!Variation: Variation 6 c
**function	**harm	**kern	**kern
*	*	*clefF4	*clefG2
*	*	*k[]	*k[]
*M2/4	*M2/4	*M2/4	*M2/4
*a:	*a:	*a:	*a:
=235	=235	=235	=235
4P	4iv/v	(8AAL	(8cL
.	.	8EJ	8eJ
4D	4viioc/v	8AAL	4d#
.	.	8F#J	.
=236	=236	=236	=236
2T	2ib/v	8GGL	8f#L
.	.	8GJ	8eJ
.	.	8EL	8g)
.	.	8GGJ)	8r
=237	=237	=237	=237
4T	4iv/v	(8AAL	(8cL
.	.	8EJ	8eJ
4T	4viioc/v	8AAL	4d#
.	.	8F#J	.
=238	=238	=238	=238
2T	2ib/v	8GGL	8f#L
.	.	8GJ	8eJ
.	.	8EL	8b)
.	.	8GGJ)	8r
=239	=239	=239	=239
4T	4iv/v	(8AAL	(8cL
.	.	8EJ	8eJ
4T	4viioc/v	8AAL	4d#
.	.	8F#J	.
=240	=240	=240	=240
2T	2ib/v	8GGL	8f#L
.	.	8GJ	8eJ
.	.	8EL	8g)
.	.	8GGJ)	8r
=241	=241	=241	=241
4T	4iv/v	(8AAL	(8cL
.	.	8GJ	8eJ
4T	4viioc/v	8AAL	4d#
.	.	8F#J	.
=242	=242	=242	=242
4T	4viioD7/V/v	8AA#L	8eL
.	.	8GJ	8gJ
4D	4V7/v	8BBL	4d#
.	.	8F#J 8A	.
=243	=243	=243	=243
4D	4Cc/v	8BBL	8eL
.	.	8EJ 8G	8bJ
4D	4V7/v	8BBL	4d#
.	.	8F#J 8A	.
=244	=244	=244	=244
*	*	*	*^
2D	2Cc/v	2BB)	4r	(4e'
.	.	.	4E 4G	4b')
=245	=245	=245	=245	=245
2D	2V7/v	2BB	4r	2d#
.	.	.	4F# 4A	.
*	*	*	*v	*v
=246	=246	=246	=246
2D	2r	2r;	2r;
=247	=247	=247	=247
2T	2i/V	(2E	(2e
*-	*-	*-	*-
